imgs/server-feat2.svg

<svg width="61" height="61" viewBox="0 0 61 61" fill="none" xmlns="http://www.w3.org/2000/svg">
<path d="M61 0C61 8.01064 59.4222 15.9428 56.3567 23.3437C53.2911 30.7446 48.7979 37.4691 43.1335 43.1335C37.4692 48.7979 30.7446 53.2911 23.3437 56.3567C15.9428 59.4222 8.01064 61 0 61L1.14441e-05 0H61Z" fill="#DFF7F0"/>
<path d="M55.306 44.2819C55.084 45.1229 54.811 45.9429 54.49 46.7399C58.037 52.5739 58.618 56.2709 57.445 57.4449C56.998 57.8919 56.371 58.1099 55.528 58.1099C55.526 58.1099 55.525 58.1099 55.523 58.1099C53.195 58.1079 49.855 56.4899 46.348 54.2229C50.987 50.7539 54 45.2239 54 38.9999C54 28.5229 45.477 19.9999 35 19.9999C28.773 19.9999 23.243 23.0169 19.777 27.6609C17.401 23.8469 16.002 20.5239 16 18.3089C15.999 17.5119 16.185 16.9209 16.553 16.5529C17.727 15.3799 21.425 15.9609 27.262 19.5099C28.059 19.1899 28.879 18.9159 29.72 18.6939C22.714 14.1349 17.449 12.8289 15.139 15.1389C14.382 15.8959 13.999 16.9629 14 18.3109C14.005 23.8009 20.554 34.0069 30.291 43.7039C34.527 47.9569 48.254 60.1009 55.521 60.1089C55.523 60.1089 55.526 60.1089 55.528 60.1089C56.908 60.1089 58.029 59.6889 58.859 58.8589C61.169 56.5479 59.863 51.2849 55.306 44.2819ZM43 38.9999C44.104 38.9999 45 39.8949 45 40.9999C45 42.1039 44.105 42.9999 43 42.9999C41.896 42.9999 41 42.1049 41 40.9999C41.001 39.8959 41.896 38.9999 43 38.9999ZM35 27.9999C36.657 27.9999 38 29.3429 38 30.9999C38 32.6569 36.657 33.9999 35 33.9999C33.343 33.9999 32 32.6569 32 30.9999C32.001 29.3429 33.344 27.9999 35 27.9999Z" fill="#08AE7E"/>
<path d="M17.519 31.564C16.543 33.849 16 36.362 16 39C16 49.477 24.523 58 35 58C37.667 58 40.205 57.442 42.511 56.445C35.385 51.542 28.977 45.219 28.874 45.115C24.255 40.515 20.389 35.856 17.519 31.564Z" fill="#93E7CF"/>
</svg>

<svg width="61" height="61" fill="none" xmlns="http://www.w3.org/2000/svg"><path d="M61 0A61 61 0 010 61V0h61z" fill="#DFF7F0"/><path d="M55.306 44.282a20.757 20.757 0 01-.816 2.458c3.547 5.834 4.128 9.53 2.955 10.705-.447.447-1.074.665-1.917.665h-.005c-2.328-.002-5.668-1.62-9.175-3.887C50.987 50.753 54 45.223 54 39c0-10.477-8.523-19-19-19-6.227 0-11.757 3.017-15.223 7.66-2.376-3.813-3.775-7.136-3.777-9.351-.001-.797.185-1.388.553-1.756 1.174-1.173 4.872-.592 10.709 2.957a20.94 20.94 0 012.458-.816c-7.006-4.56-12.271-5.865-14.581-3.555-.757.757-1.14 1.824-1.139 3.172.005 5.49 6.554 15.696 16.291 25.393 4.236 4.253 17.963 16.397 25.23 16.405h.007c1.38 0 2.501-.42 3.331-1.25 2.31-2.311 1.004-7.574-3.553-14.577zM43 39a2 2 0 110 4 2 2 0 010-4zm-8-11a3 3 0 110 6 3 3 0 010-6z" fill="#08AE7E"/><path d="M17.519 31.564A18.886 18.886 0 0016 39c0 10.477 8.523 19 19 19a18.88 18.88 0 007.511-1.555c-7.126-4.903-13.534-11.226-13.637-11.33-4.619-4.6-8.485-9.259-11.355-13.551z" fill="#93E7CF"/></svg>
